X: 54
T:St Anne's (L)
% Nottingham Music Database
S:AlyB via Lesley, via EF
M:4/4
L:1/4
K:D
P:A
d/2e/2|"D"f/2e/2d/2c/2 "G"e/2d/2c/2B/2|"D"AF/2A/2 D/2F/2A/2D/2|\
"G"B/2G/2D/2G/2 B/2D/2G/2B/2|"D"AD/2F/2 A/2F/2A/2d/2|
"D"f/2e/2d/2c/2 "G"e/2d/2c/2B/2|"D"AF/2A/2 D/2F/2A/2D/2|\
"G"B/2G/2B/2d/2 "A7"c/2A/2c/2e/2|"D"d/2e/2f/2e/2 d::
P:B
a/2g/2|"D"f/2d/2f/2a/2 f/2d/2f/2a/2|"Em"a/2gf/2 g3/2f/2|\
"A7"e/2c/2e/2g/2 e/2c/2e/2g/2|"D"b/2a^g/2 "A"a3/2g/2|
"D""Bm"f/2d/2f/2a/2 f/2d/2f/2a/2|"Em"a/2gf/2 g3/2f/2|\
"A7"e/2c/2e/2g/2 e/2c/2e/2g/2|"A7"f/2d/2e/2c/2 "D"d:|


